X: 5
T: Jenny Pluck Pears
C: Traditional
O: England
R: jig
M: 6/8
L: 1/8
K: Emin
|:E2B B2A|B3/2c/B A3/2G/F|G2G A3/2B/G|F2E E2D:|
|:F3/2G/F D2E|E3/2F/E B,2F|G2G A3/2B/G|F2E E2D:|
E2E F3/2G/A|G3/2F/E D2B,|E2E F3/2G/A|G3/2F/E DFA|
B2B AGF|G3/2F/E D2B,|^C3/2D/E D3/2^C/D|E2E E3||

